svgs/icon_request.svg

<svg width="192" height="192" viewBox="0 0 192 192" fill="none" xmlns="http://www.w3.org/2000/svg"><path d="M127 68a9 9 0 0 1-9 9 9 9 0 0 1-9-9 9 9 0 0 1 9-9 9 9 0 0 1 9 9zm-44 0a9 9 0 0 1-9 9 9 9 0 0 1-9-9 9 9 0 0 1 9-9 9 9 0 0 1 9 9z" fill="#000"/><path d="m142.1 22-18.45 18.5M49.86 22l18.45 18.5" stroke="#000" stroke-linecap="round" stroke-width="12"/><path d="M145 82v39a49 49 0 0 1-49 49 49 49 0 0 1-49-49V82a49 49 0 0 1 49-49 49 49 0 0 1 49 49zm-98 9h98" stroke="#000" stroke-width="12"/><g stroke="#000" stroke-width="12" style="stroke-width:38.4;stroke-dasharray:none"><path d="M122 56a26 26 0 0 1-26 26 26 26 0 0 1-26-26 26 26 0 0 1 26-26 26 26 0 0 1 26 26Z" style="stroke-width:38.4;stroke-dasharray:none" transform="translate(66 96.313) scale(.3125)"/><path d="M153.6 178.2 112 80m-67.2 98.2L80 80" stroke-linecap="round" style="stroke-width:38.4;stroke-dasharray:none" transform="translate(66 96.313) scale(.3125)"/><path style="fill:none;fill-opacity:0;stroke:#000;stroke-width:38.4;stroke-linecap:round;stroke-linejoin:round;stroke-dasharray:none" d="M60.858 145.436s43.253 12.441 68.184-6.67c24.931-19.112 38.54-42.245 38.54-42.245" transform="translate(66 96.313) scale(.3125)"/></g></svg>

<?xml version="1.0" encoding="UTF-8" standalone="no"?>
<svg
   width="192"
   height="192"
   viewBox="0 0 192 192"
   fill="none"
   version="1.1"
   id="svg263"
   sodipodi:docname="icon_request.svg"
   inkscape:version="1.2.1 (9c6d41e410, 2022-07-14)"
   xmlns:inkscape="http://www.inkscape.org/namespaces/inkscape"
   xmlns:sodipodi="http://sodipodi.sourceforge.net/DTD/sodipodi-0.dtd"
   xmlns="http://www.w3.org/2000/svg"
   xmlns:svg="http://www.w3.org/2000/svg">
  <defs
     id="defs267" />
  <sodipodi:namedview
     id="namedview265"
     pagecolor="#ffffff"
     bordercolor="#000000"
     borderopacity="0.25"
     inkscape:showpageshadow="2"
     inkscape:pageopacity="0.0"
     inkscape:pagecheckerboard="0"
     inkscape:deskcolor="#d1d1d1"
     showgrid="false"
     inkscape:zoom="4.3177083"
     inkscape:cx="82.798553"
     inkscape:cy="96.115803"
     inkscape:window-width="1920"
     inkscape:window-height="1009"
     inkscape:window-x="-8"
     inkscape:window-y="-8"
     inkscape:window-maximized="1"
     inkscape:current-layer="svg263" />
  <g
     id="g427">
    <path
       d="m 127,68 a 9,9 0 0 1 -9,9 9,9 0 0 1 -9,-9 9,9 0 0 1 9,-9 9,9 0 0 1 9,9 z m -44,0 a 9,9 0 0 1 -9,9 9,9 0 0 1 -9,-9 9,9 0 0 1 9,-9 9,9 0 0 1 9,9 z"
       fill="#000000"
       id="path139" />
    <path
       d="M 142.1,22 123.65,40.5 M 49.86,22 68.31,40.5"
       stroke="#000000"
       stroke-linecap="round"
       stroke-width="12"
       id="path141" />
    <path
       d="m 145,82 v 39 A 49,49 0 0 1 96,170 49,49 0 0 1 47,121 V 82 a 49,49 0 0 1 49,-49 49,49 0 0 1 49,49 z m -98,9 h 98"
       stroke="#000000"
       stroke-width="12"
       id="path143" />
    <g
       fill="none"
       stroke="#000000"
       stroke-width="12"
       id="g8"
       transform="matrix(0.3125,0,0,0.3125,66,96.3125)"
       style="stroke-width:38.4;stroke-dasharray:none">
      <g
         id="g363">
        <path
           d="M 122,56 A 26,26 0 0 1 96,82 26,26 0 0 1 70,56 26,26 0 0 1 96,30 26,26 0 0 1 122,56 Z"
           id="path4"
           style="stroke-width:38.4;stroke-dasharray:none" />
        <path
           d="M 153.6,178.2 112,80 M 44.8,178.2 80,80"
           stroke-linecap="round"
           id="path6"
           style="stroke-width:38.4;stroke-dasharray:none"
           sodipodi:nodetypes="cccc" />
        <path
           style="fill:none;fill-opacity:0;stroke:#000000;stroke-width:38.4;stroke-linecap:round;stroke-linejoin:round;stroke-dasharray:none"
           d="m 60.857904,145.4357 c 0,0 43.253306,12.44127 68.184316,-6.67019 24.93101,-19.11145 38.53897,-42.244644 38.53897,-42.244644"
           id="path1580"
           sodipodi:nodetypes="czc" />
      </g>
    </g>
  </g>
</svg>
